icons/Data_analysis_statusicons.svg

<svg width="16" height="16" viewBox="0 0 16 16" fill="currentColor" xmlns="http://www.w3.org/2000/svg">
<g clip-path="url(#clip0_4_147)">
<path d="M8.59391 11.6174C6.49784 11.6174 4.82098 9.94785 4.82098 7.86089C4.82098 5.77394 6.49784 4.10437 8.59391 4.10437C9.5022 4.10437 10.3406 4.4522 11.1791 5.14785C11.5284 5.49567 11.738 5.77394 11.9476 6.19133C12.0175 6.33046 11.9476 6.46959 11.8079 6.53915C11.6681 6.60872 11.5284 6.53915 11.4585 6.40002C11.2489 6.0522 11.1092 5.77394 10.8297 5.49567C10.0612 4.86959 9.36247 4.59133 8.59391 4.59133C6.77732 4.59133 5.37994 5.98263 5.37994 7.79133C5.37994 9.60002 6.77732 10.9913 8.59391 10.9913C10.2009 10.9913 11.5284 9.87828 11.738 8.41741C11.738 8.27828 11.8777 8.20872 12.0175 8.20872C12.1572 8.20872 12.2271 8.34785 12.2271 8.48698C12.0175 10.3652 10.4105 11.6174 8.59391 11.6174V11.6174Z" fill="#3D3D3D"/>
<path d="M10.9694 5.21739C10.8995 5.21739 10.8297 5.21739 10.7598 5.14783C10.6899 5.07826 10.6899 4.86957 10.7598 4.8L15.0218 0.626087C15.0917 0.556522 15.3013 0.556522 15.3711 0.626087C15.441 0.695653 15.441 0.904348 15.3711 0.973914L11.1091 5.14783C11.1091 5.14783 11.0393 5.21739 10.9694 5.21739V5.21739ZM6.14844 5.35652C6.07857 5.35652 6.0087 5.35652 5.93883 5.28696L3.14407 2.36522C3.0742 2.22609 3.0742 2.08696 3.14407 1.94783C3.28381 1.8087 3.42355 1.87826 3.56329 1.94783L6.35805 4.86957C6.42791 5.0087 6.42791 5.14783 6.35805 5.28696C6.28818 5.35652 6.21831 5.35652 6.14844 5.35652V5.35652ZM1.11787 14.0522C1.04801 14.0522 0.978136 14.0522 0.908267 13.9826C0.838398 13.8435 0.838398 13.7043 0.908267 13.6348L5.24014 9.73913C5.37988 9.66957 5.51962 9.66957 5.58949 9.73913C5.65936 9.87826 5.65936 10.0174 5.58949 10.087L1.25761 13.9826C1.25761 13.9826 1.18774 14.0522 1.11787 14.0522ZM7.68556 14.8174C7.47595 14.8174 7.40608 14.6783 7.40608 14.5391L7.82529 11.3391C7.82529 11.2 7.96503 11.1304 8.10477 11.1304C8.24451 11.1304 8.38424 11.2696 8.31438 11.4087L7.89516 14.6087C7.89516 14.6783 7.82529 14.8174 7.68556 14.8174V14.8174ZM14.6725 13.1478C14.6026 13.1478 14.6026 13.1478 14.5327 13.0783L11.0393 10.713C10.8995 10.6435 10.8995 10.4348 10.9694 10.3652C11.0393 10.2261 11.2489 10.2261 11.3187 10.2957L14.8122 12.6609C14.9519 12.7304 14.9519 12.9391 14.8821 13.0087C14.8122 13.0783 14.7423 13.1478 14.6725 13.1478V13.1478Z" fill="#3D3D3D"/>
<path d="M15.2315 1.2522C15.5016 1.2522 15.7205 1.03419 15.7205 0.765247C15.7205 0.496308 15.5016 0.27829 15.2315 0.27829C14.9613 0.27829 14.7424 0.496308 14.7424 0.765247C14.7424 1.03419 14.9613 1.2522 15.2315 1.2522Z" fill="#3D3D3D"/>
<path d="M15.2315 1.53043C14.8122 1.53043 14.4629 1.18261 14.4629 0.765218C14.4629 0.347826 14.8122 0 15.2315 0C15.6507 0 16 0.347826 16 0.765218C16 1.18261 15.6507 1.53043 15.2315 1.53043ZM15.2315 0.556522C15.0917 0.556522 15.0218 0.626087 15.0218 0.765218C15.0218 0.904348 15.0917 0.973913 15.2315 0.973913C15.3712 0.973913 15.4411 0.904348 15.4411 0.765218C15.4411 0.626087 15.3712 0.556522 15.2315 0.556522Z" fill="#3D3D3D"/>
<path d="M15.2315 13.8435C15.5016 13.8435 15.7205 13.6254 15.7205 13.3565C15.7205 13.0876 15.5016 12.8695 15.2315 12.8695C14.9613 12.8695 14.7424 13.0876 14.7424 13.3565C14.7424 13.6254 14.9613 13.8435 15.2315 13.8435Z" fill="#3D3D3D"/>
<path d="M15.2315 14.1217C14.8122 14.1217 14.4629 13.7739 14.4629 13.3565C14.4629 12.9391 14.8122 12.5913 15.2315 12.5913C15.6507 12.5913 16 12.9391 16 13.3565C16 13.7739 15.6507 14.1217 15.2315 14.1217ZM15.2315 13.1478C15.0917 13.1478 15.0218 13.2174 15.0218 13.3565C15.0218 13.4956 15.0917 13.5652 15.2315 13.5652C15.3712 13.5652 15.4411 13.4956 15.4411 13.3565C15.4411 13.2174 15.3712 13.1478 15.2315 13.1478Z" fill="#3D3D3D"/>
<path d="M0.768563 14.5391C1.03868 14.5391 1.25765 14.3211 1.25765 14.0522C1.25765 13.7832 1.03868 13.5652 0.768563 13.5652C0.49845 13.5652 0.27948 13.7832 0.27948 14.0522C0.27948 14.3211 0.49845 14.5391 0.768563 14.5391Z" fill="#3D3D3D"/>
<path d="M0.768559 14.8174C0.349345 14.8174 0 14.4695 0 14.0521C0 13.6348 0.349345 13.2869 0.768559 13.2869C1.18777 13.2869 1.53712 13.6348 1.53712 14.0521C1.53712 14.4695 1.18777 14.8174 0.768559 14.8174ZM0.768559 13.8434C0.628821 13.8434 0.558952 13.913 0.558952 14.0521C0.558952 14.1913 0.628821 14.2608 0.768559 14.2608C0.908297 14.2608 0.978166 14.1913 0.978166 14.0521C0.978166 13.913 0.908297 13.8434 0.768559 13.8434Z" fill="#3D3D3D"/>
<path d="M3.214 2.43482C3.48411 2.43482 3.70308 2.2168 3.70308 1.94786C3.70308 1.67892 3.48411 1.46091 3.214 1.46091C2.94388 1.46091 2.72491 1.67892 2.72491 1.94786C2.72491 2.2168 2.94388 2.43482 3.214 2.43482Z" fill="#3D3D3D"/>
<path d="M3.21396 2.71305C2.79475 2.71305 2.4454 2.36523 2.4454 1.94783C2.4454 1.53044 2.79475 1.18262 3.21396 1.18262C3.63318 1.18262 3.98252 1.53044 3.98252 1.94783C3.98252 2.36523 3.63318 2.71305 3.21396 2.71305ZM3.21396 1.73914C3.07422 1.73914 3.00436 1.8087 3.00436 1.94783C3.00436 2.08697 3.07422 2.15653 3.21396 2.15653C3.3537 2.15653 3.42357 2.08697 3.42357 1.94783C3.42357 1.8087 3.3537 1.73914 3.21396 1.73914Z" fill="#3D3D3D"/>
<path d="M7.61576 15.7217C7.88587 15.7217 8.10484 15.5037 8.10484 15.2348C8.10484 14.9659 7.88587 14.7478 7.61576 14.7478C7.34565 14.7478 7.12668 14.9659 7.12668 15.2348C7.12668 15.5037 7.34565 15.7217 7.61576 15.7217Z" fill="#3D3D3D"/>
<path d="M7.61576 16C7.19654 16 6.8472 15.6522 6.8472 15.2348C6.8472 14.8174 7.19654 14.4695 7.61576 14.4695C8.03497 14.4695 8.38431 14.8174 8.38431 15.2348C8.38431 15.6522 8.03497 16 7.61576 16ZM7.61576 15.0261C7.47602 15.0261 7.40615 15.0956 7.40615 15.2348C7.40615 15.3739 7.47602 15.4435 7.61576 15.4435C7.75549 15.4435 7.82536 15.3739 7.82536 15.2348C7.82536 15.0956 7.75549 15.0261 7.61576 15.0261Z" fill="#3D3D3D"/>
</g>
<defs>
<clipPath id="clip0_4_147">
<rect width="16" height="16" fill="white"/>
</clipPath>
</defs>
</svg>

<svg xmlns="http://www.w3.org/2000/svg" width="16" height="16" fill="currentColor" class="si si-Data_analysis_statusicons" viewBox="0 0 16 16">
  <g clip-path="url(#a)">
    <path d="M8.594 11.617A3.75 3.75 0 0 1 4.82 7.861a3.75 3.75 0 0 1 3.773-3.757c.908 0 1.747.348 2.585 1.044.35.348.559.626.769 1.043.07.14 0 .279-.14.348-.14.07-.28 0-.35-.139-.21-.348-.349-.626-.628-.904-.769-.626-1.468-.905-2.236-.905-1.817 0-3.214 1.392-3.214 3.2s1.397 3.2 3.214 3.2c1.607 0 2.934-1.113 3.144-2.574 0-.139.14-.208.28-.208s.21.139.21.278c-.21 1.878-1.817 3.13-3.634 3.13"/>
    <path d="M10.97 5.217c-.07 0-.14 0-.21-.07-.07-.069-.07-.277 0-.347L15.022.626c.07-.07.28-.07.35 0s.069.278 0 .348l-4.263 4.174s-.07.07-.14.07m-4.822.14c-.07 0-.14 0-.21-.07L3.145 2.365a.44.44 0 0 1 0-.417c.14-.14.28-.07.42 0L6.357 4.87q.105.208 0 .417c-.07.07-.14.07-.21.07m-5.03 8.695c-.07 0-.14 0-.21-.07-.07-.138-.07-.278 0-.347L5.24 9.739c.14-.07.28-.07.35 0 .07.14.07.278 0 .348l-4.332 3.896s-.07.07-.14.07m6.568.765c-.21 0-.28-.139-.28-.278l.42-3.2c0-.139.139-.209.279-.209s.28.14.21.279l-.42 3.2c0 .07-.07.208-.21.208m6.986-1.67c-.07 0-.07 0-.14-.069l-3.493-2.365c-.14-.07-.14-.278-.07-.348.07-.139.28-.139.35-.07l3.493 2.366c.14.07.14.278.07.348s-.14.139-.21.139"/>
    <path d="M15.232 1.252a.488.488 0 1 0 .002-.976.488.488 0 0 0-.002.976"/>
    <path d="M15.232 1.53a.774.774 0 0 1-.77-.765c0-.417.35-.765.77-.765.419 0 .768.348.768.765s-.35.765-.768.765m0-.973q-.21 0-.21.208 0 .21.21.209.21 0 .21-.209 0-.208-.21-.208m0 13.287a.488.488 0 1 0 .001-.977.488.488 0 0 0-.002.976"/>
    <path d="M15.232 14.122a.774.774 0 0 1-.77-.765c0-.418.35-.766.77-.766.419 0 .768.348.768.766 0 .417-.35.765-.768.765m0-.974q-.21 0-.21.209 0 .208.21.208t.21-.208-.21-.21M.769 14.54a.488.488 0 1 0 .002-.977.488.488 0 0 0-.002.976"/>
    <path d="M.769 14.817A.774.774 0 0 1 0 14.052c0-.417.35-.765.769-.765s.768.348.768.765-.35.765-.768.765m0-.974q-.21 0-.21.21 0 .207.21.208.21 0 .21-.209t-.21-.209M3.214 2.435a.488.488 0 1 0 .002-.976.488.488 0 0 0-.002.976"/>
    <path d="M3.214 2.713a.774.774 0 0 1-.769-.765c0-.418.35-.765.769-.765s.769.347.769.765c0 .417-.35.765-.769.765m0-.974q-.21 0-.21.209t.21.209.21-.21q0-.207-.21-.208m4.402 13.983a.488.488 0 1 0 .002-.976.488.488 0 0 0-.002.976"/>
    <path d="M7.616 16a.774.774 0 0 1-.769-.765c0-.418.35-.765.769-.765s.768.347.768.765a.773.773 0 0 1-.768.765m0-.974q-.21 0-.21.209t.21.209.21-.21-.21-.208"/>
  </g>
  <defs>
    <clipPath id="a">
      <path d="M0 0h16v16H0z"/>
    </clipPath>
  </defs>
</svg>
